Sources/FrostedUI/Resources/Icons.xcassets/happy12.imageset/happy-12.svg

<svg width="12" height="12" viewBox="0 0 12 12" fill="none" xmlns="http://www.w3.org/2000/svg" data-fui-icon="true">
  <g clip-path="url(#clip0_882_1312)">
    <path
      d="M6 0C9.31371 0 12 2.68629 12 6C12 9.31371 9.31371 12 6 12C2.68629 12 0 9.31371 0 6C0 2.68629 2.68629 0 6 0ZM6 1.5C3.51472 1.5 1.5 3.51472 1.5 6C1.5 8.48528 3.51472 10.5 6 10.5C8.48528 10.5 10.5 8.48528 10.5 6C10.5 3.51472 8.48528 1.5 6 1.5ZM3.66504 6.5791C4.01223 6.40575 4.42936 6.52681 4.63281 6.84766L4.66699 6.90918C4.67301 6.91878 4.68507 6.93456 4.70117 6.95605C4.73985 7.00762 4.80694 7.08462 4.90625 7.16406C5.09535 7.31534 5.43219 7.5 6 7.5C6.56781 7.5 6.90465 7.31534 7.09375 7.16406C7.19306 7.08462 7.26015 7.00762 7.29883 6.95605C7.31618 6.9329 7.32733 6.91543 7.33301 6.90625C7.3326 6.90703 7.3325 6.90826 7.33203 6.90918L7.36719 6.84766C7.57064 6.52681 7.98777 6.40575 8.33496 6.5791C8.70531 6.76428 8.85584 7.21455 8.6709 7.58496L8.27734 7.38867C8.65767 7.57896 8.67064 7.5854 8.6709 7.58594L8.66992 7.58691L8.66309 7.60059C8.65982 7.60681 8.65585 7.6149 8.65137 7.62305C8.64243 7.63929 8.63025 7.6595 8.61621 7.68262C8.58808 7.72892 8.54896 7.78856 8.49805 7.85645C8.3961 7.99233 8.24428 8.16551 8.03125 8.33594C7.59535 8.68466 6.93219 9 6 9C5.06781 9 4.40465 8.68466 3.96875 8.33594C3.75572 8.16551 3.6039 7.99233 3.50195 7.85645C3.45104 7.78856 3.41192 7.72892 3.38379 7.68262C3.36975 7.6595 3.35757 7.63929 3.34863 7.62305C3.34415 7.6149 3.34018 7.60681 3.33691 7.60059L3.33008 7.58691L3.3291 7.58594C3.32936 7.5854 3.34233 7.57896 3.72266 7.38867L3.3291 7.58496C3.14416 7.21455 3.29469 6.76428 3.66504 6.5791ZM4.25 3.78125C4.80228 3.78125 5.25 4.22897 5.25 4.78125C5.25 5.33353 4.80228 5.78125 4.25 5.78125C3.69772 5.78125 3.25 5.33353 3.25 4.78125C3.25 4.22897 3.69772 3.78125 4.25 3.78125ZM7.75 3.78125C8.30229 3.78125 8.75 4.22897 8.75 4.78125C8.75 5.33353 8.30229 5.78125 7.75 5.78125C7.19772 5.78125 6.75 5.33353 6.75 4.78125C6.75 4.22897 7.19772 3.78125 7.75 3.78125Z"
      fill="currentColor"
    />
  </g>
  <defs>
    <clipPath id="clip0_882_1312"><path fill="currentColor" d="M0 0H12V12H0z" /></clipPath>
  </defs>
</svg>

<svg xmlns="http://www.w3.org/2000/svg" width="12" height="12" fill="none" data-fui-icon="true" viewBox="0 0 12 12"><g clip-path="url(#a)"><path fill="currentColor" d="M6 0a6 6 0 1 1 0 12A6 6 0 0 1 6 0m0 1.5a4.5 4.5 0 1 0 0 9 4.5 4.5 0 0 0 0-9M3.665 6.58a.75.75 0 0 1 .968.268l.034.061.034.047c.039.052.106.129.205.208.19.151.526.336 1.094.336s.905-.185 1.094-.336a1.2 1.2 0 0 0 .239-.258l-.001.003.035-.061a.75.75 0 0 1 1.304.737l-.394-.196.394.197H8.67l-.007.015-.012.022-.035.06a2.665 2.665 0 0 1-.585.653C7.595 8.685 6.932 9 6 9s-1.595-.315-2.031-.664a2.7 2.7 0 0 1-.585-.653l-.035-.06-.012-.022-.007-.014v-.001l.393-.197-.394.196a.75.75 0 0 1 .336-1.006M4.25 3.78a1 1 0 1 1 0 2 1 1 0 0 1 0-2m3.5 0a1 1 0 1 1 0 2 1 1 0 0 1 0-2"/></g><defs><clipPath id="a"><path fill="currentColor" d="M0 0h12v12H0z"/></clipPath></defs></svg>
